icons/mobile/24/svg/local-host-24.svg

<!-- This Source Code Form is subject to the terms of the Mozilla Public
   - License, v. 2.0. If a copy of the MPL was not distributed with this
   - file, You can obtain one at http://mozilla.org/MPL/2.0/. -->
<svg width="24" height="24" viewBox="0 0 24 24" fill="none" xmlns="http://www.w3.org/2000/svg">
    <path fill-rule="evenodd" clip-rule="evenodd" d="M2 18H5.5C4.11975 18 3 16.8802 3 15.5V7.5C3 6.11975 4.11975 5 5.5 5H18.5C19.8802 5 21 6.11975 21 7.5V15.5C21 16.8802 19.8802 18 18.5 18H22V19.75H2V18ZM5.5 6.75C5.08625 6.75 4.75 7.08625 4.75 7.5V15.5C4.75 15.9138 5.08625 16.25 5.5 16.25H18.5C18.9138 16.25 19.25 15.9138 19.25 15.5V7.5C19.25 7.08625 18.9138 6.75 18.5 6.75H5.5Z" fill="black" />
</svg>

<!-- This Source Code Form is subject to the terms of the Mozilla Public
   - License, v. 2.0. If a copy of the MPL was not distributed with this
   - file, You can obtain one at http://mozilla.org/MPL/2.0/. -->
<svg xmlns="http://www.w3.org/2000/svg" width="24" height="24" fill="none" viewBox="0 0 24 24">
    <path fill="#000" fill-rule="evenodd" d="M2 18h3.5A2.5 2.5 0 0 1 3 15.5v-8A2.5 2.5 0 0 1 5.5 5h13A2.5 2.5 0 0 1 21 7.5v8a2.5 2.5 0 0 1-2.5 2.5H22v1.75H2zM5.5 6.75a.75.75 0 0 0-.75.75v8c0 .414.336.75.75.75h13a.75.75 0 0 0 .75-.75v-8a.75.75 0 0 0-.75-.75z" clip-rule="evenodd" />
</svg>
